images/Insula.svg

<svg height="250" viewBox="0 0 250 250" width="250" xmlns="http://www.w3.org/2000/svg"><path d="m98.160156 55.214844c0 2.761718 1.074219 3.066406 9.203125 3.066406 8.128907 0 9.199219.308594 9.199219 3.070312 0 2.914063 1.074219 3.066407 20.707031 3.066407 19.632813 0 20.707031-.152344 20.707031-3.066407 0-2.761718 1.074219-3.070312 9.203126-3.070312 8.128906 0 9.199218-.304688 9.199218-3.066406 0-2.914063-1.070312-3.066406-39.109375-3.066406-38.035156 0-39.109375.152343-39.109375 3.066406zm0 0"/><path d="m73.621094 73.621094c0 2.757812 1.070312 3.066406 9.96875 3.066406h9.96875v142.636719h-9.96875c-9.664063 0-9.96875.15625-9.96875 3.835937v3.832032h78.21875v-3.832032c0-3.679687-.460938-3.835937-9.203125-3.835937h-9.199219v-142.636719h9.660156c8.589844 0 9.664063-.308594 9.664063-3.066406 0-2.914063-1.074219-3.070313-39.570313-3.070313-38.5 0-39.570312.15625-39.570312 3.070313zm0 0"/><path d="m139.570312 145.707031v62.882813h36.808594v-3.835938c0-3.679687-.457031-3.832031-9.199218-3.832031h-9.203126v-118.101563h-18.40625zm0 0"/></svg>

<svg xmlns="http://www.w3.org/2000/svg" xmlns:xlink="http://www.w3.org/1999/xlink" width="250px" height="250px" viewBox="0 0 250 250" version="1.1">
<g id="surface1">
<path style=" stroke:none;fill-rule:nonzero;fill:rgb(0%,0%,0%);fill-opacity:1;" d="M 98.160156 55.214844 C 98.160156 57.976562 99.234375 58.28125 107.363281 58.28125 C 115.492188 58.28125 116.5625 58.589844 116.5625 61.351562 C 116.5625 64.265625 117.636719 64.417969 137.269531 64.417969 C 156.902344 64.417969 157.976562 64.265625 157.976562 61.351562 C 157.976562 58.589844 159.050781 58.28125 167.179688 58.28125 C 175.308594 58.28125 176.378906 57.976562 176.378906 55.214844 C 176.378906 52.300781 175.308594 52.148438 137.269531 52.148438 C 99.234375 52.148438 98.160156 52.300781 98.160156 55.214844 Z M 98.160156 55.214844 "/>
<path style=" stroke:none;fill-rule:nonzero;fill:rgb(0%,0%,0%);fill-opacity:1;" d="M 73.621094 73.621094 C 73.621094 76.378906 74.691406 76.6875 83.589844 76.6875 L 93.558594 76.6875 L 93.558594 219.324219 L 83.589844 219.324219 C 73.925781 219.324219 73.621094 219.480469 73.621094 223.160156 L 73.621094 226.992188 L 151.839844 226.992188 L 151.839844 223.160156 C 151.839844 219.480469 151.378906 219.324219 142.636719 219.324219 L 133.4375 219.324219 L 133.4375 76.6875 L 143.097656 76.6875 C 151.6875 76.6875 152.761719 76.378906 152.761719 73.621094 C 152.761719 70.707031 151.6875 70.550781 113.191406 70.550781 C 74.691406 70.550781 73.621094 70.707031 73.621094 73.621094 Z M 73.621094 73.621094 "/>
<path style=" stroke:none;fill-rule:nonzero;fill:rgb(0%,0%,0%);fill-opacity:1;" d="M 139.570312 145.707031 L 139.570312 208.589844 L 176.378906 208.589844 L 176.378906 204.753906 C 176.378906 201.074219 175.921875 200.921875 167.179688 200.921875 L 157.976562 200.921875 L 157.976562 82.820312 L 139.570312 82.820312 Z M 139.570312 145.707031 "/>
</g>
</svg>
